X: 25225
T: Maltman Comes On Monday, The
R: slip jig
M: 9/8
K: Gmajor
|:DEF G2 e dBG|F2 A AEG F2 D|DD/E/F G2 e dd/e/f|g2 G GAG F2 D:|
|:dBd ece dBG|F2 A AEG F2 D|dB/c/d ece dd/e/f|gGG GAG F2 D:|
|:BDB cEc BDB|A2 c EFG F2 D|BD/G/B cE/A/c BD/G/B|AcB AGF G3:|
|:dBG ecA dB/A/G|E2 c EE/F/G F2 D|dBG ecA fdf|g2 G GB/A/G F2 D:|
|:GBG EcG DBG|E2 A AEG F2 D|GBG EcG DBG|Ec/B/A AGF G3:|
|:dGe dec BAG|A2 c EFG F2 D|B/c/dG c/d/eA d/e/fd|g2 G GAG F2 D:|
|:DGB cEA BDG|F2 A AE/F/G F2 D|Eec DdB EcG|Ac/B/A AGF G3:|
|:dBd GBd Gce|A2 c EE/F/G F2 D|dB/c/d Gc/d/e Ad/e/f|1 g2 G GAG F2 D:|2 gGG AA/G/F G3:|

